X: 37538
T: Slopes Of Benbulben
R: reel
M: 4/4
K: Gmajor
e|dG~G2 DGBG|dGBG ABce|dBgB bBgB|dAA^G ABce|
dB~B2 cDFA|GFGA B^ABc|dgfe dB (3cBA|GFAF G3:|
a|gf (3efg agfg|GdBd GdBd|g3a bc'ba|gefe d3B|
cBce gefe|dBcB ADFA|cBAc BAGB|ADFA G3:|

